X:157
T:Old Oak Tree, The
R:reel
Z:transcribed by Dave Marshall
M:C|
K:D
|: AGFE D2FD | GEFE Ddcd | AGFE DEFD |1 ~E2=cA BGEB :|2 ~E2=cA BGEd |
| cdec A2 (3AAA | cdec AGEA | cdec ABAG | ~E2=cA BGEd |
cdec A2 (3AAA | cdec AGEd | cdeg fdec | ABcA BdcB |
